Origami/24x24/apps/thunderbird.svg

<svg width="24" height="24" version="1.1" viewBox="0 0 24 24" xmlns="http://www.w3.org/2000/svg">
 <path d="m10.501953 2.5348087c-1.5521073 0.0414254-2.5782288 1.4934921-3.2558592 2.7675782-1.6768321 0.6609813-2.9468381 1.9011307-3.953125 3.4980468-0.6923364 1.2220513-1.111629 2.5816133-1.2675782 3.9746113-0.092676 1.412307 0.0677889 2.850593 0.5996094 4.171875 0.4122081 1.161289 1.1374654 2.185524 2.0664062 2.980468 1.2332721 0.822941 2.4647473 1.66867 3.8105469 1.611328-0.5002656-0.289239-2.1079469-1.35082-2.5-3.501953 0.4162122 0.815167 2.4360363 2.251857 3 2.5-0.2801735-0.261634-0.9126157-1.873669-0.9863281-2.794921l-3.890625-1.19336c-0.3170233-1.002788-0.5055883-2.03928-0.6210938-3.099609-0.0147479-0.236934-0.04435-0.494799 0.0410157-0.431641 0.3193348 0.506119 0.9007284 1.195062 1.4550781 1.482422-0.5257231-0.826863-0.5727494-2.302262-0.4863281-3.285156 0.0867157-0.986245 0.3088034-1.9438324 0.9199219-2.6523455 0.186423-0.2134209 0.3869664-0.4117073 0.5917968-0.6035156-0.0047528 0.3717634 0.0560118 0.7506637 0.0996094 1.1132812-0.0087767 0.1899044 0.1790073 0.5887432 0.0878906 0.6289063-0.1838158 0.5552836-0.3594616 1.2729646 0.0800782 1.7578136 0.1392192-0.6276 0.8957866-0.931338 1.4355468-1.195313 0.6101599-0.2649012 1.1048376-0.6649529 1.7089844-0.94336 0.796102-0.4566794 1.565232 0.2148438 2.587891 0.2148437 0.97772 0 1.509061-0.5649507 2.476562-1 0.225171 0.2329306 0.62861 0.6122721 0.804688 0.8886719h-2e-3c0.504348 0.8065254 0.580518 1.7439064 0.695359 2.6640644 0.143307 1.203562-0.286403 2.537842-0.998047 3.449218 0.01467 2e-3 1.6506-0.191958 2.501953-1-0.607417 4.696561-3.485419 7.346077-5.001953 8.001953 2.018803 0.135865 3.497213-0.999999 3.5-1 0.0027 0-0.279993 0.569771-1 1 1.319185-0.369385 2.067919-0.492203 2.900391-1.099609-3.12e-4 0 0.675148-0.368873 1.380859-1.173828 0.09388-0.107088 0.25491-0.254998 0.351563-0.376953 0.06008-0.07581 0.117058-0.154296 0.175781-0.230469 0.01035-0.01253 0.0213-0.02441 0.03125-0.03711 1.485339-1.817042 2.209881-4.075812 2.15625-6.123047 0.0949-5.2951112-4.589214-9.6887438-10.638672-8.9023454-0.06238 6.865e-4 -0.264296 0.00904-0.511719 0.019531-0.06937-0.1822512 0.0095-0.977099 0.154297-1.0800782-0.318128 0.029781-0.607802 0.7371788-0.876953 1.1347657-0.03205 0.00345-0.064 0.00403-0.0957 0.00781 0.231893-0.4991702 0.473963-1.2832822 0.75-1.6425782-1.0558767 0.1970993-1.4018917 1.1509289-1.9726594 1.8535195-0.0539725 0.0084695-0.1088495 0.0158962-0.1621094 0.0253906 0.2798033-1.1066059 0.9212419-1.6045957 1.8574218-2.3789063z" style="opacity:.2"/>
 <path d="m40.403656-62.31234a20.426046 20.426046 0 1 1 40.153647 -7.521834 20.426046 20.426046 0 1 1 -40.153647 7.521834z" style="fill:none"/>
 <path d="m5.1639413 18.416627c0.8684953 1.249123 2.0576698 2.424245 3.3375454 2.62159-0.5002656-0.28924-2.1084199-1.349529-2.500473-3.500662 0.4162122 0.815167 2.4366039 2.25233 3.0005676 2.500473-0.2801735-0.261634-0.9118255-1.875176-0.9855379-2.796428l-3.9032545-1.196971c0.022465 0.03419 0.1022853 1.037406 1.0511524 2.371998z" style="fill:#304776"/>
 <path d="m18.003284 10.036136-6.50123-2.279907-6.9672229 0.4642598-1.778178 2.2190652c0.3164022 2.051278 0.1198168 4.271802 1.2216875 6.063934l11.52447 3.53454 2.490067-4.367821z" style="opacity:.2"/>
 <path d="m18.003284 9.5360412-6.50123-2.2799068-6.9672229 0.4642598-1.778178 2.2190648c0.3164022 2.051278 0.1198168 4.271802 1.2216875 6.063935l11.52447 3.534539 2.490067-4.367821z" style="fill:#ebebeb"/>
 <path d="m17.474475 11.286421-0.964547-3.1685261-11.797651-0.1184069-0.0668902 0.0824226-0.1105553 0.1385782 4.4667502 6.3164982z" style="opacity:.2"/>
 <path d="m4.7016116 7.587097 1.1737808 0.1676407 0.3222535-1.5708632-0.6445075 0.3141725z" style="fill-rule:evenodd;fill:#3f7da7"/>
 <path d="m17.474475 10.786326-0.964547-3.1685257-11.797651-0.1184069-0.0668902 0.0824226-0.1105553 0.1385782 4.4667502 6.3164988z" style="fill:#f7f7f7"/>
 <path d="m11.476659 4.0925578c-0.0012 2.831e-4 -1.4833291 0.00714-2.1302859 0.2148844-2.7809966 0.2460108-4.6639545 1.7872872-6.0538796 3.9930137-0.6923363 1.2220517-1.1118688 2.5813861-1.267818 3.9743841-0.092676 1.412307 0.068879 2.851383 0.6006995 4.172665 0.4122081 1.161289 1.1378565 2.185112 2.0667973 2.980056 1.2332721 0.822941 2.4635148 1.667997 3.8093144 1.610656-1.2798756-0.197345-2.4690501-1.372467-3.3375454-2.62159-0.9488672-1.334591-1.0285149-2.337355-1.0509801-2.371542l0.012698 0.0039c-0.3170233-1.002788-0.5057061-2.03986-0.6212116-3.100189-0.0147479-0.236934-0.0443423-0.493903 0.0410234-0.430745 0.3193348 0.506119 0.9001793 1.194589 1.454529 1.481949-0.5257231-0.826863-0.572017-2.303107-0.4855957-3.286001 0.0867157-0.986244 0.3089778-1.9423794 0.9200962-2.6508925 1.6010594-1.8329257 3.9372354-2.8079142 6.0421585-3.9705487zm-2.9751723 16.945659c-0.062762-0.05675-0.1286568-0.09325-0.1963261-0.121117 0.073548 0.04724 0.1442033 0.09098 0.1963261 0.121117z" style="fill:#2f67a4"/>
 <path d="m11.363281 4.0957031c-0.060638 6.565e-4 -0.267175 0.0070812-0.515625 0.0175781 0.010793 0.0291358 0.024515 0.0452323 0.042969 0.0390626 0.15983-0.0276514 0.314637-0.0361548 0.472656-0.0566407zm-1.238281 0.0742188c-0.032143 0.0034533-0.063914 0.0040254-0.095703 0.0078125-0.0377279 0.0812123-0.075946 0.1744718-0.1132814 0.2363281 0.0673409-0.0410032 0.1386724-0.1402767 0.2089844-0.2441406zm-1.3183594 0.21875c-0.0538712 0.0084497-0.1089489 0.0159191-0.1621094 0.0253906-0.0207474 0.0820551-0.0438651 0.1588531-0.0605468 0.2480469 0.084385-0.0799973 0.1484546-0.1820985 0.2226562-0.2734375zm-1.5605468 0.4140625c-1.6766745 0.6612717-2.9467683 1.9010198-3.953125 3.4980468-0.6923365 1.2220519-1.111629 2.5816118-1.2675782 3.9746098-0.025306 0.38564-0.0286388 0.771514-0.0136718 1.158203 0.00171-0.21988-7.078e-4 -0.439072 0.0136718-0.658203 0.1559492-1.392998 0.5752418-2.752558 1.2675782-3.9746098 0.9287496-1.4738692 2.0847045-2.6393746 3.5742187-3.3320312 0.0635807-0.1075281 0.1265149-0.2153884 0.1835937-0.3164062 0.0558758-0.1120638 0.1334111-0.2332219 0.1953126-0.3496094z" style="fill:#ffffff;opacity:.1"/>
 <path d="m10.502075 2.0346247c-1.6938922 0.0452095-2.7838604 1.7798643-3.4514037 3.1186821-0.2404475 0.4255428-0.5612772 0.9305043-0.7713019 1.3324433-0.4019711 0.6334079-0.237521 1.3941153-0.1542037 2.0870959-0.0087767 0.1899044 0.1791559 0.5886093 0.0880392 0.6287724-0.1838158 0.5552831-0.3589765 1.2718116 0.0805632 1.7566606 0.1392193-0.6276 0.8956389-0.930001 1.4353991-1.1939751 0.6101599-0.2649006 1.1040498-0.6662041 1.7081966-0.9446112 0.7961022-0.4566794 1.5648112 0.2162539 2.5874702 0.2162539 0.97772 0 1.510287-0.5651399 2.477788-1.0001892 0.225171 0.2329305 0.627899 0.6112656 0.803977 0.8876654h-0.0025c0.504302 0.8065246 0.58106 1.7440992 0.695901 2.6642572 0.143307 1.203562-0.285506 2.537401-0.99715 3.448777-8.4e-5 1.4e-5 -0.0057 0.0012-0.0057 0.0012 1.7e-5 0 5e-3 -1.3e-5 5e-3 0 0.01467 2e-3 1.649618-0.192772 2.500971-1.000814-0.607417 4.696561-3.484412 7.345637-5.000946 8.001513 2.018803 0.135864 3.497875-1.000189 3.500662-1.000189 0.0027 0-0.280182 0.56996-1.000189 1.000189 1.319185-0.369386 2.06645-0.492308 2.898922-1.099714-3.12e-4 0 0.676455-0.368249 1.382166-1.173204 0.09388-0.107088 0.255182-0.255686 0.351835-0.377641 0.06008-0.07581 0.115622-0.153558 0.174345-0.229731 0.01035-0.01253 0.02215-0.02444 0.0321-0.03714 1.485339-1.817042 2.208702-4.076214 2.155071-6.123449 0.097359-5.4323102-4.829708-9.9310933-11.106431-8.8451872-0.135522 0.0453096-0.055739-0.9985621 0.111519-1.1174783-0.401234 0.0375606-0.760084 1.1804759-1.0852029 1.3784374 0.2668169-0.4420552 0.5408789-1.4607805 0.8618259-1.878532-1.1931406 0.2227185-1.462044 1.4329386-2.1955283 2.1282839 0.2416533-1.2920731 0.9132133-1.7966527 1.9188113-2.6283785z" style="fill:#4a96e1"/>
 <path d="m6.7068861 9c2.2224327-0.063966 0.8270055-1.4413466 3.7931139-4-2.4164733 1.2511803-4.716496 1.2494473-3.7902469 4h-0.0028z" style="fill:#4271a3"/>
 <path d="m7.9032137 7.659672c-0.1598489 0.2919667-0.5328294 0.4096415-0.739161 0.2997372-0.2108644-0.1099033-0.2097307-0.4773598-0.0464988-0.769327 0.1575813-0.2919673 0.85366-0.16097 0.8570607-0.16097 0.0033 0 0.088425 0.3397028-0.071423 0.6305598z" style="fill:#ffffff"/>
 <path d="m7.440085 9.8863065s0.1283182-0.1238305 0.061428-0.3502653c-0.7999022 0.2644755-1.2641741-0.5011993-1.261383-0.5011993 0.0027 0-0.5284565 1.4390181 0.048474 2.0014831 0.062246-0.588732 1.1217497-1.1192237 1.1245408-1.1192237" style="fill:#5c5f60"/>
 <path d="m10.501953 2.0351562c-1.6938921 0.0452095-2.7836285 1.7783697-3.4511718 3.1171876-0.2404475 0.4255427-0.5614596 0.9320453-0.7714843 1.3339843-0.257475 0.4057175-0.2754136 0.8633436-0.2382813 1.3222657 0.0199679-0.28546 0.0754155-0.5656292 0.2382813-0.8222657 0.2100247-0.401939 0.5310368-0.9064884 0.7714843-1.3320312 0.5602383-1.123608 1.4229524-2.5143339 2.6855469-2.9628907 0.2295641-0.2090358 0.4799439-0.4199646 0.7656249-0.65625zm0.277344 0.5c-0.180145 0.033627-0.335729 0.0944903-0.478516 0.1679688-0.300425 0.2481401-0.5627939 0.4846277-0.7929685 0.71875-0.2299357 0.3114881-0.4396283 0.6402317-0.6777344 0.9394531-0.105013 0.2334288-0.1885465 0.4950405-0.2460937 0.8027344 0.6632646-0.6287769 0.9524075-1.6713299 1.8828126-2.03125 0.100228-0.235879 0.202918-0.4550222 0.3125-0.5976563zm0.222656 0.5c-0.17752 0.016618-0.344183 0.259458-0.505859 0.53125-0.204421 0.4676608-0.395667 1.0421282-0.5800784 1.3476563 0.2803004-0.1706722 0.5858844-1.0412029 0.9218754-1.3027344 0.02649-0.2567069 0.08504-0.5199878 0.164062-0.5761719zm2.171875 0.9628907c-0.735236-0.029699-1.498613 0.018559-2.283203 0.1542969-0.02235 0.00747-0.03566-0.021695-0.04687-0.064453-0.03309 0.295661-0.02683 0.5890938 0.04687 0.5644532 6.207396-1.0739122 11.086572 3.3166123 11.099609 8.6679682 0.0014-0.107414 0.0106-0.215903 0.0078-0.322265 0.08519-4.7532716-3.677564-8.7921073-8.824219-9.0000001zm-0.671875 18.041015c-8.3346353 1.307292-4.1673177 0.653646 0 0z" style="fill:#ffffff;opacity:.1"/>
</svg>

<svg xmlns="http://www.w3.org/2000/svg" width="24" height="24" x="0" y="0" version="1.1" viewBox="0 0 24 24" xml:space="preserve">
 <path style="opacity:0.2" d="M 10.501953,2.5348087 C 8.9498457,2.5762341 7.9237242,4.0283008 7.2460938,5.3023869 5.5692617,5.9633682 4.2992557,7.2035176 3.2929688,8.8004337 2.6006324,10.022485 2.1813398,11.382047 2.0253906,12.775045 1.9327146,14.187352 2.0931795,15.625638 2.625,16.94692 c 0.4122081,1.161289 1.1374654,2.185524 2.0664062,2.980468 1.2332721,0.822941 2.4647473,1.66867 3.8105469,1.611328 -0.5002656,-0.289239 -2.1079469,-1.35082 -2.5,-3.501953 0.4162122,0.815167 2.4360363,2.251857 3,2.5 C 8.7217796,20.275129 8.0893374,18.663094 8.015625,17.741842 L 4.125,16.548482 C 3.8079767,15.545694 3.6194117,14.509202 3.5039062,13.448873 3.4891583,13.211939 3.4595562,12.954074 3.5449219,13.017232 3.8642567,13.523351 4.4456503,14.212294 5,14.499654 4.4742769,13.672791 4.4272506,12.197392 4.5136719,11.214498 4.6003876,10.228253 4.8224753,9.2706656 5.4335938,8.5621525 5.6200168,8.3487316 5.8205602,8.1504452 6.0253906,7.9586369 6.0206378,8.3304003 6.0814024,8.7093006 6.125,9.0719181 6.1162233,9.2618225 6.3040073,9.6606613 6.2128906,9.7008244 6.0290748,10.256108 5.853429,10.973789 6.2929688,11.458638 6.432188,10.831038 7.1887554,10.5273 7.7285156,10.263325 8.3386755,9.9984238 8.8333532,9.5983721 9.4375,9.319965 c 0.796102,-0.4566794 1.565232,0.2148438 2.587891,0.2148437 0.97772,0 1.509061,-0.5649507 2.476562,-1 0.225171,0.2329306 0.62861,0.6122721 0.804688,0.8886719 h -0.002 C 15.808989,10.230006 15.885159,11.167387 16,12.087545 c 0.143307,1.203562 -0.286403,2.537842 -0.998047,3.449218 0.01467,0.002 1.6506,-0.191958 2.501953,-1 -0.607417,4.696561 -3.485419,7.346077 -5.001953,8.001953 2.018803,0.135865 3.497213,-0.999999 3.5,-1 0.0027,0 -0.279993,0.569771 -1,1 1.319185,-0.369385 2.067919,-0.492203 2.900391,-1.099609 -3.12e-4,0 0.675148,-0.368873 1.380859,-1.173828 0.09388,-0.107088 0.25491,-0.254998 0.351563,-0.376953 0.06008,-0.07581 0.117058,-0.154296 0.175781,-0.230469 0.01035,-0.01253 0.0213,-0.02441 0.03125,-0.03711 1.485339,-1.817042 2.209881,-4.075812 2.15625,-6.123047 0.0949,-5.2951112 -4.589214,-9.6887438 -10.638672,-8.9023454 -0.06238,6.865e-4 -0.264296,0.00904 -0.511719,0.019531 -0.06937,-0.1822512 0.0095,-0.977099 0.154297,-1.0800782 -0.318128,0.029781 -0.607802,0.7371788 -0.876953,1.1347657 -0.03205,0.00345 -0.064,0.00403 -0.0957,0.00781 0.231893,-0.4991702 0.473963,-1.2832822 0.75,-1.6425782 C 9.7234233,3.2319042 9.3774083,4.1857338 8.8066406,4.8883244 8.7526681,4.8967939 8.6977911,4.9042206 8.6445312,4.913715 8.9243345,3.8071091 9.5657731,3.3091193 10.501953,2.5348087 Z"/>
 <path style="fill:none" d="m 40.403656,-62.31234 a 20.426046,20.426046 0 1 1 40.153647,-7.521834 20.426046,20.426046 0 1 1 -40.153647,7.521834 z"/>
 <path style="fill:#304776" d="m 5.1639413,18.416627 c 0.8684953,1.249123 2.0576698,2.424245 3.3375454,2.62159 -0.5002656,-0.28924 -2.1084199,-1.349529 -2.500473,-3.500662 0.4162122,0.815167 2.4366039,2.25233 3.0005676,2.500473 C 8.7214078,19.776394 8.0897558,18.162852 8.0160434,17.2416 L 4.1127889,16.044629 c 0.022465,0.03419 0.1022853,1.037406 1.0511524,2.371998 z"/>
 <path style="opacity:0.2" d="M 18.003284,10.036136 11.502054,7.756229 4.5348311,8.2204888 2.7566531,10.439554 c 0.3164022,2.051278 0.1198168,4.271802 1.2216875,6.063934 l 11.5244704,3.53454 2.490067,-4.367821 z"/>
 <path style="fill:#ebebeb" d="M 18.003284,9.5360412 11.502054,7.2561344 4.5348311,7.7203942 2.7566531,9.939459 c 0.3164022,2.051278 0.1198168,4.271802 1.2216875,6.063935 l 11.5244704,3.534539 2.490067,-4.367821 z"/>
 <path style="opacity:0.2" d="M 17.474475,11.286421 16.509928,8.1178949 4.7122766,7.999488 4.6453864,8.0819106 4.5348311,8.2204888 9.0015813,14.536987 Z"/>
 <path style="fill:#3f7da7;fill-rule:evenodd" d="M 4.7016116,7.587097 5.8753924,7.7547377 6.1976459,6.1838745 5.5531384,6.498047 Z"/>
 <path style="fill:#f7f7f7" d="M 17.474475,10.786326 16.509928,7.6178003 4.7122766,7.4993934 4.6453864,7.581816 4.5348311,7.7203942 9.0015813,14.036893 Z"/>
 <path style="fill:#2f67a4" d="m 11.476659,4.0925578 c -0.0012,2.831e-4 -1.4833291,0.00714 -2.1302859,0.2148844 C 6.5653765,4.553453 4.6824186,6.0947294 3.2924935,8.3004559 2.6001572,9.5225076 2.1806247,10.881842 2.0246755,12.27484 c -0.092676,1.412307 0.068879,2.851383 0.6006995,4.172665 0.4122081,1.161289 1.1378565,2.185112 2.0667973,2.980056 1.2332721,0.822941 2.4635148,1.667997 3.8093144,1.610656 C 7.2216111,20.840872 6.0324366,19.66575 5.1639413,18.416627 4.2150741,17.082036 4.1354264,16.079272 4.1129612,16.045085 l 0.012698,0.0039 C 3.8086359,15.046197 3.6199531,14.009125 3.5044476,12.948796 3.4896997,12.711862 3.4601053,12.454893 3.545471,12.518051 3.8648058,13.02417 4.4456503,13.71264 5,14 4.4742769,13.173137 4.427983,11.696893 4.5144043,10.713999 4.60112,9.727755 4.8233821,8.7716196 5.4345005,8.0631065 7.0355599,6.2301808 9.3717359,5.2551923 11.476659,4.0925578 Z M 8.5014867,21.038217 c -0.062762,-0.05675 -0.1286568,-0.09325 -0.1963261,-0.121117 0.073548,0.04724 0.1442033,0.09098 0.1963261,0.121117 z"/>
 <path style="opacity:0.1;fill:#ffffff" d="M 11.363281 4.0957031 C 11.302643 4.0963596 11.096106 4.1027843 10.847656 4.1132812 C 10.858449 4.142417 10.872171 4.1585135 10.890625 4.1523438 C 11.050455 4.1246924 11.205262 4.116189 11.363281 4.0957031 z M 10.125 4.1699219 C 10.092857 4.1733752 10.061086 4.1739473 10.029297 4.1777344 C 9.9915691 4.2589467 9.953351 4.3522062 9.9160156 4.4140625 C 9.9833565 4.3730593 10.054688 4.2737858 10.125 4.1699219 z M 8.8066406 4.3886719 C 8.7527694 4.3971216 8.6976917 4.404591 8.6445312 4.4140625 C 8.6237838 4.4961176 8.6006661 4.5729156 8.5839844 4.6621094 C 8.6683694 4.5821121 8.732439 4.4800109 8.8066406 4.3886719 z M 7.2460938 4.8027344 C 5.5694193 5.4640061 4.2993255 6.7037542 3.2929688 8.3007812 C 2.6006323 9.5228331 2.1813398 10.882393 2.0253906 12.275391 C 2.0000846 12.661031 1.9967518 13.046905 2.0117188 13.433594 C 2.0134288 13.213714 2.011011 12.994522 2.0253906 12.775391 C 2.1813398 11.382393 2.6006324 10.022833 3.2929688 8.8007812 C 4.2217184 7.326912 5.3776733 6.1614066 6.8671875 5.46875 C 6.9307682 5.3612219 6.9937024 5.2533616 7.0507812 5.1523438 C 7.106657 5.04028 7.1841923 4.9191219 7.2460938 4.8027344 z"/>
 <path style="fill:#4a96e1" d="M 10.502075,2.0346247 C 8.8081828,2.0798342 7.7182146,3.814489 7.0506713,5.1533068 6.8102238,5.5788496 6.4893941,6.0838111 6.2793694,6.4857501 5.8773983,7.119158 6.0418484,7.8798654 6.1251657,8.572846 6.116389,8.7627504 6.3043216,9.1614553 6.2132049,9.2016184 6.0293891,9.7569015 5.8542284,10.47343 6.2937681,10.958279 6.4329874,10.330679 7.189407,10.028278 7.7291672,9.7643039 8.3393271,9.4994033 8.833217,9.0980998 9.4373638,8.8196927 10.233466,8.3630133 11.002175,9.0359466 12.024834,9.0359466 c 0.97772,0 1.510287,-0.5651399 2.477788,-1.0001892 0.225171,0.2329305 0.627899,0.6112656 0.803977,0.8876654 h -0.0025 C 15.808401,9.7299474 15.885159,10.667522 16,11.58768 c 0.143307,1.203562 -0.285506,2.537401 -0.99715,3.448777 -8.4e-5,1.4e-5 -0.0057,0.0012 -0.0057,0.0012 1.7e-5,0 0.005,-1.3e-5 0.005,0 0.01467,0.002 1.649618,-0.192772 2.500971,-1.000814 -0.607417,4.696561 -3.484412,7.345637 -5.000946,8.001513 2.018803,0.135864 3.497875,-1.000189 3.500662,-1.000189 0.0027,0 -0.280182,0.56996 -1.000189,1.000189 1.319185,-0.369386 2.06645,-0.492308 2.898922,-1.099714 -3.12e-4,0 0.676455,-0.368249 1.382166,-1.173204 0.09388,-0.107088 0.255182,-0.255686 0.351835,-0.377641 0.06008,-0.07581 0.115622,-0.153558 0.174345,-0.229731 0.01035,-0.01253 0.02215,-0.02444 0.0321,-0.03714 1.485339,-1.817042 2.208702,-4.076214 2.155071,-6.123449 C 22.094446,7.5651668 17.167379,3.0663837 10.890656,4.1522898 10.755134,4.1975994 10.834917,3.1537277 11.002175,3.0348115 10.600941,3.0723721 10.242091,4.2152874 9.9169721,4.4132489 10.183789,3.9711937 10.457851,2.9524684 10.778798,2.5347169 9.5856574,2.7574354 9.316754,3.9676555 8.5832697,4.6630008 8.824923,3.3709277 9.496483,2.8663481 10.502081,2.0346223 Z"/>
 <path style="fill:#4271a3" d="M 6.7068861,9 C 8.9293188,8.936034 7.5338916,7.5586534 10.5,5 8.0835267,6.2511803 5.783504,6.2494473 6.7097531,9 h -0.0028 z"/>
 <path style="fill:#ffffff" d="M 7.9032137,7.659672 C 7.7433648,7.9516387 7.3703843,8.0693135 7.1640527,7.9594092 6.9531883,7.8495059 6.954322,7.4820494 7.1175539,7.1900822 c 0.1575813,-0.2919673 0.85366,-0.16097 0.8570607,-0.16097 0.0033,0 0.088425,0.3397028 -0.071423,0.6305598 z"/>
 <path style="fill:#5c5f60" d="m 7.440085,9.8863065 c 0,0 0.1283182,-0.1238305 0.061428,-0.3502653 C 6.7016108,9.8005167 6.2373389,9.0348419 6.24013,9.0348419 c 0.0027,0 -0.5284565,1.4390181 0.048474,2.0014831 C 6.35085,10.447593 7.4103537,9.9171013 7.4131448,9.9171013"/>
 <path style="opacity:0.1;fill:#ffffff" d="M 10.501953,2.0351562 C 8.8080609,2.0803657 7.7183245,3.8135259 7.0507812,5.1523438 6.8103337,5.5778865 6.4893216,6.0843891 6.2792969,6.4863281 6.0218219,6.8920456 6.0038833,7.3496717 6.0410156,7.8085938 6.0609835,7.5231338 6.1164311,7.2429646 6.2792969,6.9863281 6.4893216,6.5843891 6.8103337,6.0798397 7.0507812,5.6542969 7.6110195,4.5306889 8.4737336,3.139963 9.7363281,2.6914062 9.9658922,2.4823704 10.216272,2.2714416 10.501953,2.0351562 Z m 0.277344,0.5 C 10.599152,2.5687832 10.443568,2.6296465 10.300781,2.703125 10.000356,2.9512651 9.7379871,3.1877527 9.5078125,3.421875 9.2778768,3.7333631 9.0681842,4.0621067 8.8300781,4.3613281 8.7250651,4.5947569 8.6415316,4.8563686 8.5839844,5.1640625 9.247249,4.5352856 9.5363919,3.4927326 10.466797,3.1328125 c 0.100228,-0.235879 0.202918,-0.4550222 0.3125,-0.5976563 z m 0.222656,0.5 c -0.17752,0.016618 -0.344183,0.259458 -0.505859,0.53125 C 10.291673,4.034067 10.100427,4.6085344 9.9160156,4.9140625 10.196316,4.7433903 10.5019,3.8728596 10.837891,3.6113281 c 0.02649,-0.2567069 0.08504,-0.5199878 0.164062,-0.5761719 z m 2.171875,0.9628907 c -0.735236,-0.029699 -1.498613,0.018559 -2.283203,0.1542969 -0.02235,0.00747 -0.03566,-0.021695 -0.04687,-0.064453 -0.03309,0.295661 -0.02683,0.5890938 0.04687,0.5644532 6.207396,-1.0739122 11.086572,3.3166123 11.099609,8.6679682 0.0014,-0.107414 0.0106,-0.215903 0.0078,-0.322265 0.08519,-4.7532716 -3.677564,-8.7921073 -8.824219,-9.0000001 z M 12.501953,22.039062 c -8.3346353,1.307292 -4.1673177,0.653646 0,0 z"/>
</svg>
